FINK
CUT[MICH FLIEHEN ALLE FREUDEN]
REG[Europa, Mitteleuropa, Deutschland]
KEY[F0954  16  G 6/8]
MEL[5_  3__3_2__2_  1__1_0__
    5_  5__1_6__6_  2__.0__
    2_  3__3_4__4_  5__.6__
    6_  1__1_2__12  1__0__.
    5_  1#__1#_6__5_  4_.44_0__
    4_  -7__-7_5__4_  3_.33_0__
    1_  4#__4#_4#__4#_  5__0__.
    5_  4__4_3__3_  2__2_0__
    2_  3__3_4__4_  5__0__.
    6_  1__1_2__12  1__0__. //] >>
FCT[Liebes - Lied, Klage]
